X:68
T: The Girl I Left Behind Me
C: Traditional
K: G
M: C|
L: 1/8
vguf |: "G" ve2 d2 B2 G2 | "C" ABAG E2 D2 |
"G" vG2  (uGF) vGABc | d4 B2 vgf | e2 d2 B2 G2 | "C" ABAG E2 G2 |
"D" F2 A2 D2 (EF) |1 "G" G4 G2 gf :|2 "G" G4 G2 GA |: B2 d2 e2 f2 |
g2 d2 B2 G2 | Bc d2 (e2 f2) | g4 "D" f2 gf | "G" ve2 d2 B2 G2 |
"C" ABAG E2 G2 | "D" F2 A2 D2 (EF) |1 "G" G4 G2 GA :|2 "G" G4 uG2 |]

